X:1     %Music
T:I'll Tell You of a Fellow
B:Broadwood, L, 1893, English County Songs, London, Leadenhall Press
S:From Mrs Wilson, near King's Langley, Herts, who had it from a Leicestershire maidservant.
Z:Lucy Broadwood
F:http://www.folkinfo.org/songs
M:4/4     %Meter
L:1/8     %
K:C
G2 |E2 D2 E2 F2 |G G2 z G2 G2 |A2 A2 A2 A2 | G6 
w:I'll tell you of a fel-low, of a fel-low I have seen, 
E2 |F2 G2 A2 B2 |c2 G2 z2 G2 |F2 F2 E2 E2 | D6 
w:He's nei-ther white nor yel-low, but al-to-geth-er green; 
G2 |E2 D2 E2 F2 |G2 c2 z2 c2 |B2 c2 d2 e2 | c4
w:His name it is not charm-ing but on-ly com-mon Bill, 
 c2 e2 |c2 G2 G2 G2 |A2 F2 c2 c2 |B3 B B2 B2 | c6  |]
w:Yet he urg-es me to wed him, but I hard-ly think I will. 